shader_type canvas_item;

uniform bool flash = false;

void fragment() {
    vec4 tex = texture(TEXTURE, UV);

    if (flash) {
        COLOR = vec4(1.0, 1.0, 1.0, tex.a);
    } else {
        COLOR = tex;
    }
}
